X: 73
T:Koala Bears' Picnic, The
C:John W. Bratton (c.1907)
Z: Teddy Bear's picnic version for English Country Dance
M:6/8
L:1/8
K:Em
P:A
"Em"E2G "B7"FGF|"Em"E2G "B7"F2G|"Em"EFG "B7"F2G|"Em"E3- "D7"E2D|
"G"G2B "D7"ABA|"G"G2B "D7"A2B|"G"GAB "D7"A2B|"G"G3- G2d|
"Am"e2d e2d|"D7"ABd B2A|"G"A2G A2G|DEG E2D|
"C"E2G "G"D2D|"C"EFG"G"D2B|"D7"A6|"G"G2B dBd|
P:B
K:G
"D9"e2d "Eo"e3-|"D7"edB dBd|A2F A3-|"G"ADE FGE|
"D7"F3 E3|D3 B3|"G"A2A Bdf|e2B dBd|
"D9"e2d "Eo"e3-|"D7"edB dBd|"G"A2F A3-|ADE FAF|
"C7"G3-GEF|"G6"G3-GEF|"C7"GFE ^A2A|"B7"B3-B3||
P:C
K:G
"G"D3 B3|^A3 B3|e2B d3-|d2B ^A2B|
e2B d2B|edB ^A2B|"D7"d2A c3-|c6|
"D7"D3 c3|B3 c3|f2=c e3-|e2e ^d2e|
f3 e3|d3 c3|"G"B2d d3-|d3- "D7"d3|
"G"D3 B3|^A3 B3|e2B d3-|d2B ^A2B|
e2B d2B|edB "G7"A2G|"C"g6-|g3 e2f|
"C"g2f g2f|"A7"gfg age|"G"d2=c d2e|"Em"d2G A2B|
"Am"c3 d2e|"D7"B3A3|"G"G6-|G6|

